plasma/desktoptheme/Arc-Dark/icons/sirikali.svg

<svg xmlns="http://www.w3.org/2000/svg" width="32" height="32" version="1.1">
 <g id="sirikali">
  <rect style="opacity:0.001" width="32" height="32" x="0" y="0"/>
  <path style="fill:#d3dae3" d="M 16,2 C 11.567943,2 8,5.5679115 8,10 v 3 H 6.4003906 C 5.6253621,13 5,13.72338 5,14.498047 V 28.599609 C 5,29.374275 5.6253621,30 6.4003906,30 H 25.599609 C 26.374323,30 27,29.374275 27,28.599609 V 14.498047 C 27,13.72338 26.372751,12.950222 25.599609,13 H 24 V 10 C 24,5.5677561 20.431428,2 16,2 Z m 0,3 c 2.937833,0 5,2.178064 5,5.027344 V 13 H 11 V 10.027344 C 11,7.177744 13.061666,5 16,5 Z m 0,12 c 1.656854,0 3,1.343146 3,3 -9.55e-4,1.270521 -0.802141,2.402665 -2,2.826172 V 26 c 0,0.552285 -0.447715,1 -1,1 -0.552285,0 -1,-0.447715 -1,-1 V 22.824219 C 13.802815,22.400952 13.001782,21.269804 13,20 c 0,-1.656854 1.343146,-3 3,-3 z"/>
 </g>
 <g id="22-22-sirikali" transform="translate(27,5)">
  <rect style="opacity:0.001" width="22" height="22" x="5" y="5"/>
  <path style="fill:#d3dae3" d="m 16,8 c -2.6592,0 -3.86691,2.159645 -4,4.923828 V 15 H 10.839843 C 10.374843,15 10,15.454719 10,15.931641 v 7.207031 C 10,23.615595 10.374844,24 10.839843,24 H 21.160156 C 21.625156,24 22,23.615595 22,23.138672 V 15.931641 C 22,15.454719 21.625156,15 21.160156,15 H 20 V 12.923828 C 20,10.196443 18.6592,8 16,8 Z m 0,2 c 1.385,0 2,1.330644 2,2.984375 V 15 H 14 V 12.984375 C 14,11.330644 14.615,10 16,10 Z m 0,7 c 1.104568,0 2,0.91789 2,2.050781 -9.29e-4,0.740636 -0.391682,1.408495 -1,1.769531 V 22 a 1,1 0 0 1 -1,1 1,1 0 0 1 -1,-1 V 20.820312 C 14.39169,20.459275 14.000965,19.791417 14,19.050781 14,17.91789 14.895432,17.000001 16,17 Z"/>
 </g>
</svg>

<?xml version="1.0" encoding="UTF-8"?>
<svg width="32" height="32" version="1.1" xmlns="http://www.w3.org/2000/svg">
 <g id="sirikali">
  <rect width="32" height="32" opacity=".001"/>
  <path d="m16 2c-4.4321 0-8 3.5679-8 8v3h-1.5996c-0.77503 0-1.4004 0.72338-1.4004 1.498v14.102c0 0.77467 0.62536 1.4004 1.4004 1.4004h19.199c0.77471 0 1.4004-0.62572 1.4004-1.4004v-14.102c0-0.77467-0.62725-1.5478-1.4004-1.498h-1.5996v-3c0-4.4322-3.5686-8-8-8zm0 3c2.9378 0 5 2.1781 5 5.0273v2.9727h-10v-2.9727c0-2.8496 2.0617-5.0273 5-5.0273zm0 12c1.6569 0 3 1.3431 3 3-9.55e-4 1.2705-0.80214 2.4027-2 2.8262v3.1738c0 0.55228-0.44772 1-1 1s-1-0.44772-1-1v-3.1758c-1.1972-0.42327-1.9982-1.5544-2-2.8242 0-1.6569 1.3431-3 3-3z" fill="#d3dae3"/>
 </g>
 <g id="22-22-sirikali" transform="translate(27,5)">
  <rect x="5" y="5" width="22" height="22" opacity=".001"/>
  <path d="m16 8c-2.6592 0-3.8669 2.1596-4 4.9238v2.0762h-1.1602c-0.465 0-0.83984 0.45472-0.83984 0.93164v7.207c0 0.47692 0.37484 0.86133 0.83984 0.86133h10.32c0.465 0 0.83984-0.3844 0.83984-0.86133v-7.207c0-0.47692-0.37484-0.93164-0.83984-0.93164h-1.1602v-2.0762c0-2.7274-1.3408-4.9238-4-4.9238zm0 2c1.385 0 2 1.3306 2 2.9844v2.0156h-4v-2.0156c0-1.6537 0.615-2.9844 2-2.9844zm0 7c1.1046 0 2 0.91789 2 2.0508-9.29e-4 0.74064-0.39168 1.4085-1 1.7695v1.1797a1 1 0 0 1-1 1 1 1 0 0 1-1-1v-1.1797c-0.60831-0.36104-0.99904-1.0289-1-1.7695 0-1.1329 0.89543-2.0508 2-2.0508z" fill="#d3dae3"/>
 </g>
</svg>
